X: 805
T: Julia McMahon.
C:F. O'Neill.
B:O'Neill's Music of Ireland
N:O'Neill's - 805
Z:Transcribed by Stephen Foy (shf@access.digex.net)
Z:abc 1.6
R:Jig
M:6/8
K:G
D|G>AG GAB|dBd g2 d|B>AG GAB|dBG FGA|G>AG GAB|dBd g2 d|
|B>cd ecA|G>AG G2:|d|g>ag fed|efe d2 d|g>dB GAB|dBG FGA|
|[1 g>ag fed|def g2 d|Bcd ecA|G>AG G2:|[2 B>AB c>Bc|d>cd g2 d|\
B>cd ecA|G>AG G2|]


